X:574
T: GOLDNE GOLDNE BRUECKE
N: E1879
O: Europa, Mitteleuropa, Deutschland
R: Kinder - Lied, Tanz, Bruecken - Spiel
M: 2/4
L: 1/8
K: D
 | DEFG | A2A
A | BBdB | A2F
A | G2EA | F2D
F | EFGA | G2F
D | AAFD | AAF
D | BBdB | A2F
A | BAGF | E2Dz

@@@ Tune index: 5258
